proprietary/assets/icons/gebouwonderdelen/ventilatierooster.svg

<svg height="64" viewBox="0 0 64 64" width="64" xmlns="http://www.w3.org/2000/svg"><path d="m0 0h64v64h-64z" fill="none"/><path d="m61 34.1h-1.2c.8-4.3-1.2-7.2-1.3-7.3l-.8.6-.7.6s1.6 2.3 1 5.7l-1.2-.6c-.3-.1-.5.1-.4.4l1.5 3.3c.1.2.4.3.6.1l2.8-2.3c.2-.2 0-.5-.3-.5zm-12-22.1h-34c-1.7 0-3 1.3-3 3v34c0 1.7 1.3 3 3 3h34c1.7 0 3-1.3 3-3v-34c0-1.7-1.3-3-3-3zm-17 3.8c3 0 5.7.8 8.1 2.2h-16.2c2.4-1.4 5.1-2.2 8.1-2.2zm16.9 17.6c-.3.1-.5.1-.8.2-.1.8-.2 1.7-.4 2.5h-31.4c-.2-.8-.4-1.6-.4-2.5-.2 0-.4-.1-.6-.1-.4-.2-.3-.4-.3-.5h34.1c.1.1.1.3-.2.4zm0 6c-.9.2-1.9.4-2.8.5-.4.7-.9 1.4-1.4 2.1h-25.4c-.5-.7-1-1.4-1.5-2.1-.8-.1-1.7-.3-2.6-.5-.3-.1-.2-.3-.2-.4h34.1c.1.1.1.3-.2.4zm0-12c-.4.1-.9.2-1.3.3.2.8.4 1.6.5 2.4h-32.2c.1-.8.3-1.6.5-2.4-.4-.1-.8-.1-1.2-.2-.3-.2-.2-.4-.2-.5h34.1c.1.1.1.3-.2.4zm0-6c-1.4.3-2.8.5-4.1.7.5.6.9 1.2 1.2 1.9h-28.1c.4-.7.8-1.3 1.3-1.9-1.2-.2-2.6-.5-3.9-.7-.4-.1-.3-.3-.3-.4h34.1c.1.1.1.3-.2.4zm-33.9-7.9c.8 0 1.5.7 1.5 1.5s-.7 1.5-1.5 1.5-1.5-.7-1.5-1.5.7-1.5 1.5-1.5zm0 37c-.8 0-1.5-.7-1.5-1.5s.7-1.5 1.5-1.5 1.5.7 1.5 1.5-.7 1.5-1.5 1.5zm17-2.3c-2.8 0-5.4-.7-7.7-1.9-2.5-.2-6.1-.5-9.1-.9-.3 0-.3-.3-.2-.4h34.1c0 .1.1.3-.2.4-3.1.3-6.8.7-9.3.9-2.2 1.2-4.8 1.9-7.6 1.9zm17 2.3c-.8 0-1.5-.7-1.5-1.5s.7-1.5 1.5-1.5 1.5.7 1.5 1.5-.7 1.5-1.5 1.5zm0-34c-.8 0-1.5-.7-1.5-1.5s.7-1.5 1.5-1.5 1.5.7 1.5 1.5-.7 1.5-1.5 1.5z"/></svg>

<?xml version="1.0" encoding="utf-8"?>
<!-- Generator: Adobe Illustrator 21.0.2, SVG Export Plug-In . SVG Version: 6.00 Build 0)  -->
<svg version="1.2" baseProfile="tiny" xmlns="http://www.w3.org/2000/svg" xmlns:xlink="http://www.w3.org/1999/xlink" x="0px"
	 y="0px" width="64px" height="64px" viewBox="0 0 64 64" xml:space="preserve">
<g id="Box">
	<rect fill="none" width="64" height="64"/>
</g>
<g id="Icon">
	<g>
		<path d="M61,34.1l-1.2,0c0.8-4.3-1.2-7.2-1.3-7.3l-0.8,0.6L57,28c0,0,1.6,2.3,1,5.7l-1.2-0.6c-0.3-0.1-0.5,0.1-0.4,0.4l1.5,3.3
			c0.1,0.2,0.4,0.3,0.6,0.1l2.8-2.3C61.5,34.4,61.3,34.1,61,34.1z M49,12H15c-1.7,0-3,1.3-3,3v34c0,1.7,1.3,3,3,3h34
			c1.7,0,3-1.3,3-3V15C52,13.3,50.7,12,49,12z M32,15.8c3,0,5.7,0.8,8.1,2.2H23.9C26.3,16.6,29,15.8,32,15.8z M48.9,33.4
			c-0.3,0.1-0.5,0.1-0.8,0.2c-0.1,0.8-0.2,1.7-0.4,2.5H16.3c-0.2-0.8-0.4-1.6-0.4-2.5c-0.2,0-0.4-0.1-0.6-0.1
			C14.9,33.3,15,33.1,15,33h34.1C49.2,33.1,49.2,33.3,48.9,33.4z M48.9,39.4c-0.9,0.2-1.9,0.4-2.8,0.5c-0.4,0.7-0.9,1.4-1.4,2.1
			H19.3c-0.5-0.7-1-1.4-1.5-2.1c-0.8-0.1-1.7-0.3-2.6-0.5C14.9,39.3,15,39.1,15,39h34.1C49.2,39.1,49.2,39.3,48.9,39.4z M48.9,27.4
			c-0.4,0.1-0.9,0.2-1.3,0.3c0.2,0.8,0.4,1.6,0.5,2.4H15.9c0.1-0.8,0.3-1.6,0.5-2.4c-0.4-0.1-0.8-0.1-1.2-0.2
			C14.9,27.3,15,27.1,15,27h34.1C49.2,27.1,49.2,27.3,48.9,27.4z M48.9,21.4c-1.4,0.3-2.8,0.5-4.1,0.7c0.5,0.6,0.9,1.2,1.2,1.9H17.9
			c0.4-0.7,0.8-1.3,1.3-1.9c-1.2-0.2-2.6-0.5-3.9-0.7C14.9,21.3,15,21.1,15,21h34.1C49.2,21.1,49.2,21.3,48.9,21.4z M15,13.5
			c0.8,0,1.5,0.7,1.5,1.5s-0.7,1.5-1.5,1.5s-1.5-0.7-1.5-1.5S14.2,13.5,15,13.5z M15,50.5c-0.8,0-1.5-0.7-1.5-1.5s0.7-1.5,1.5-1.5
			s1.5,0.7,1.5,1.5S15.8,50.5,15,50.5z M32,48.2c-2.8,0-5.4-0.7-7.7-1.9c-2.5-0.2-6.1-0.5-9.1-0.9c-0.3,0-0.3-0.3-0.2-0.4h34.1
			c0,0.1,0.1,0.3-0.2,0.4c-3.1,0.3-6.8,0.7-9.3,0.9C37.4,47.5,34.8,48.2,32,48.2z M49,50.5c-0.8,0-1.5-0.7-1.5-1.5s0.7-1.5,1.5-1.5
			s1.5,0.7,1.5,1.5S49.8,50.5,49,50.5z M49,16.5c-0.8,0-1.5-0.7-1.5-1.5s0.7-1.5,1.5-1.5s1.5,0.7,1.5,1.5S49.8,16.5,49,16.5z"/>
	</g>
</g>
</svg>
